svg/axe_battle.svg

<svg xmlns="http://www.w3.org/2000/svg" viewBox="0 0 24 24"><path d="M21.47 12.43c-2.12 2.12-5.65 1.41-5.65 1.41V9.6L3.41 22 2 20.59 14.4 8.18h-4.24s-.71-3.53 1.41-5.65c2.12-2.124 5.66-1.42 5.66-1.42v4.25l.71-.71 1.41 1.41-.71.71h4.25s.7 3.54-1.42 5.66"/></svg>

<svg xmlns="http://www.w3.org/2000/svg" id="mdi-axe-battle" viewBox="0 0 24 24"><path d="M21.47 12.43C19.35 14.55 15.82 13.84 15.82 13.84V9.6L3.41 22L2 20.59L14.4 8.18H10.16C10.16 8.18 9.45 4.65 11.57 2.53C13.69 .406 17.23 1.11 17.23 1.11V5.36L17.94 4.65L19.35 6.06L18.64 6.77H22.89C22.89 6.77 23.59 10.31 21.47 12.43Z" /></svg>
